theme/dist/icons/star-full.svg

<svg fill="none" height="24" viewBox="0 0 24 24" width="24" xmlns="http://www.w3.org/2000/svg"><path d="m21.2841 8.27559-5.9508-.86484-2.6602-5.39297c-.0726-.14765-.1922-.26719-.3398-.33984-.3703-.18281-.8203-.03047-1.0055.33984l-2.66014 5.39297-5.95078.86484c-.16406.02344-.31407.10079-.42891.21797-.13884.14271-.21535.33469-.21271.53377.00264.19909.0842.38898.22677.52795l4.30547 4.19762-1.01719 5.9274c-.02385.1379-.00859.2797.04405.4093.05264.1297.14055.242.25377.3242s.24722.1311.38679.1411c.13958.0099.27915-.0194.40289-.0848l5.32269-2.7984 5.3226 2.7984c.1453.0774.3141.1031.4758.075.4078-.0703.682-.457.6117-.8648l-1.0172-5.9274 4.3055-4.19762c.1172-.11484.1945-.26484.218-.4289.0633-.41016-.2227-.78985-.6328-.85079z" fill="#e8e8e8"/><path d="m21.2841 8.27559-5.9508-.86484-2.6602-5.39297c-.0726-.14765-.1922-.26719-.3398-.33984-.3703-.18281-.8203-.03047-1.0055.33984l-2.66014 5.39297-5.95078.86484c-.16406.02344-.31407.10079-.42891.21797-.13884.14271-.21535.33469-.21271.53377.00264.19909.0842.38898.22677.52795l4.30547 4.19762-1.01719 5.9274c-.02385.1379-.00859.2797.04405.4093.05264.1297.14055.242.25377.3242s.24722.1311.38679.1411c.13958.0099.27915-.0194.40289-.0848l5.32269-2.7984 5.3226 2.7984c.1453.0774.3141.1031.4758.075.4078-.0703.682-.457.6117-.8648l-1.0172-5.9274 4.3055-4.19762c.1172-.11484.1945-.26484.218-.4289.0633-.41016-.2227-.78985-.6328-.85079z" fill="#fadb14"/></svg>

<svg width="24" height="24" viewBox="0 0 24 24" fill="none" xmlns="http://www.w3.org/2000/svg"><path d="M21.2841 8.27559 15.3333 7.41075 12.6731 2.01778C12.6005 1.87013 12.4809 1.75059 12.3333 1.67794 11.963 1.49513 11.513 1.64747 11.3278 2.01778L8.66766 7.41075 2.71688 8.27559C2.55282 8.29903 2.40281 8.37638 2.28797 8.49356 2.14913 8.63627 2.07262 8.82825 2.07526 9.02733 2.0779 9.22642 2.15946 9.41631 2.30203 9.55528L6.6075 13.7529 5.59031 19.6803C5.56646 19.8182 5.58172 19.96 5.63436 20.0896 5.687 20.2193 5.77491 20.3316 5.88813 20.4138 6.00135 20.496 6.13535 20.5449 6.27492 20.5549 6.4145 20.5648 6.55407 20.5355 6.67781 20.4701L12.0005 17.6717 17.3231 20.4701C17.4684 20.5475 17.6372 20.5732 17.7989 20.5451 18.2067 20.4748 18.4809 20.0881 18.4106 19.6803L17.3934 13.7529 21.6989 9.55528C21.8161 9.44044 21.8934 9.29044 21.9169 9.12638 21.9802 8.71622 21.6942 8.33653 21.2841 8.27559z" fill="#e8e8e8"/><path d="M21.2841 8.27559 15.3333 7.41075 12.6731 2.01778C12.6005 1.87013 12.4809 1.75059 12.3333 1.67794 11.963 1.49513 11.513 1.64747 11.3278 2.01778L8.66766 7.41075 2.71688 8.27559C2.55282 8.29903 2.40281 8.37638 2.28797 8.49356 2.14913 8.63627 2.07262 8.82825 2.07526 9.02733 2.0779 9.22642 2.15946 9.41631 2.30203 9.55528L6.6075 13.7529 5.59031 19.6803C5.56646 19.8182 5.58172 19.96 5.63436 20.0896 5.687 20.2193 5.77491 20.3316 5.88813 20.4138 6.00135 20.496 6.13535 20.5449 6.27492 20.5549 6.4145 20.5648 6.55407 20.5355 6.67781 20.4701L12.0005 17.6717 17.3231 20.4701C17.4684 20.5475 17.6372 20.5732 17.7989 20.5451 18.2067 20.4748 18.4809 20.0881 18.4106 19.6803L17.3934 13.7529 21.6989 9.55528C21.8161 9.44044 21.8934 9.29044 21.9169 9.12638 21.9802 8.71622 21.6942 8.33653 21.2841 8.27559z" fill="#fadb14"/></svg>
